X:1
T: Lady Louisa Cornwallis' Strathspey
C:William Marshall
R:Strathspey
Q: 128
K:Eb
M:4/4
L:1/16
|:G2|E4 AGFE B2E2 G4|C2F2 F2G2 AGFE D2B,2|E4 G2E2 B2E2 G2E2|A,2c2 B2D2 E4 E2G2|
E4 AGFE B2E2 G4|C2F2 F2G2 AGFE D2B,2|E4 G2E2 B2E2 G2E2|A,2c2 B2D2 E4 E2B2|
edcB G3e B2e2 g4|c2f2 f2g2 agfe d2B2|edcB G2e2 B2e2 G2E2|A,2c2 B2D2 E4 E2B2|
edcB G3e B2e2 g4|c2f2 f2g2 a2f2 d2B2|e3g ((3f2e2d2) ((3e2d2c2) ((3B2A2G2) |((3A2B2c2) B2D2 E4 E2:|
